X: 37
T: Rose Leaf Rag
C: Scott Joplin
%%abc-version 2.0
%%abcx-abcm2ps-target-version 5.9.1 (29 Sep 2008)
%%abc-creator hum2abc beta
%%abcx-conversion-date 2021/07/20 09:00:57
%%abc-copyright Copyright 2004 by Craig Stuart Sapp
%%abc-edited-by Craig Stuart Sapp
%%abc-edited-by Craig Stuart Sapp
%%abcx-initial-encoding-date 2004/06/07/
%%humdrum-veritas 2844029110
%%humdrum-veritas-data 2928959286
%%removed 0's from note length
%%linebreak <none>
%%barnumbers 0
L: 1/8
M: 2/4
N: Derived from roseleaf.krn
Q: "Slow March tempo" 1/4=92
%%staves {1 2}
V: 1 clef=treble
V: 2 clef=bass
K: C
[V:1] [K:clef=treble][M:2/4]G/A/^F/G/- G/c/B/A/ | 
[V:2] [K:clef=bass][M:2/4]G,/A,/^F,/G,/- G,/C/B,/A,/ | 
[V:1] G/A/^F/G/- G/e/d/c/ | 
[V:2] G,/A,/^F,/G,/- G,/E/D/C/ | 
[V:1] E>^D [E/C/][F=DC][^F/D/C/] & C2x2 | 
[V:2] G,>^F, G,/A,_A,/ | 
[V:1] [G2D2B,2]!accent![g2d2B2G2] ]|:  
[V:2] G,2!accent![G,,2G,,,2] ]|:  
[V:1] c/B/c/e/ a/^d/c/A/ & E2z2 | 
[V:2] G,2z2 & [CC,]E,/G,/ ^F,/A,/C/^D/ | 
[V:1] G/^F/=F/E/- E/E/!accent![ED] | 
[V:2] E/^D/=D/C/- C!accent![^G,E,] | 
[V:1] A/^G/A/c/ f/d/B/^G/ & C2z2 | 
[V:2] E,2z2 & [A,A,,]C,/E,/ D,/F,/^G,/B,/ | 
[V:1] A/c/_B/A/- A/=B/c & A/A/E/F/- FF | 
[V:2] C/E/^C/D/- D[_A,_A,,] | 
[V:1] c/B^A/- A/A/B & [FD]>[E^C]- [EC][FD] | 
[V:2] [G,G,,][B,G,F,] [G,G,,][G,F,] | 
[V:1] B/AE/- [E/C/][F/D/][GE] & [E3/C3/]C/-x2 | 
[V:2] C,[G,E,] C,[G,E,] | 
[V:1] G/B/e/g/ g/^fe/- & x2[d3/A3/][B/G/]- | 
[V:2] B,,[EB,G,] B,,[^DB,A,] | 
[V:1] [e2B2G2]-[eBG]!accent!!arpeggio![gBF] | 
[V:2] [E/E,/]C/B,/G,/ E,!accent![B,G,D,] | 
[V:1] c/B/c/e/ a/^d/c/A/ & E2z2 | 
[V:2] G,2z2 & [CC,]E,/G,/ ^F,/A,/C/^D/ | 
[V:1] G/^F/=F/E/- E/E/!accent![ED] | 
[V:2] E/^D/=D/C/- C!accent![^G,E,] | 
[V:1] A/^G/A/c/ f/d/B/G/ & C2z2 | 
[V:2] E,2z2 & [A,A,,]C,/E,/ D,/F,/^G,/B,/ | 
[V:1] A/c/_B/A/- A/f/g & A/A/E/F/- F[^cB] | 
[V:2] C/E/^C/D/- D[E,E,,] | 
[V:1] g/fc/- c/d/^d & [dA]>A- A[cA] | 
[V:2] [F,F,,][FDA,] [F,F,,][^F,^F,,] | 
[V:1] [e/c/G/][gec][a/e/^c/]- a/e/a & x2[ec][ec] | 
[V:2] [G,G,,][_B,_B,,] [A,A,,][GE^CA,] | 
[V:1] a/^g/a/b/-x2 & [^f=c][f/c/][=f/B/]- [b/f/B/][e'/=g/e/][d'fd] |[1 
[V:2] [D,D,,][^FD=CA,] [G,G,,][=FDB,G,] | 
[V:1] [c'ec]G/^F/ G/^G/A/B/ :|][2 
[V:2] [CC,][ECG,][=F2B,2G,2] :|]  
[V:1] [c'ec]G/c/ e/c/e/g/ ]|: 
[V:2] [CC,] z z G,/E,/ ]|:  
[V:1] a/_a/g/_g/ f/d'd/ & [f2B2]f/bd/ | 
[V:2] D,[FB,G,] G,,[FB,G,] | 
[V:1] aB/f/- f/G/-d/^d/ & fB/d/- d/G/[BG] | 
[V:2] B,,[FB,G,] G,,[FB,G,] | 
[V:1] e/_e/d/_d/ c/gG/ & [c2G2]c/=eG/ | 
[V:2] C,[ECG,] E,[ECG,] | 
[V:1] eE/c/- c/C/G & cE/G/- G/C/E | 
[V:2] G,,[CG,] E,C, | 
[V:1] z/ [g/f/G/][a/f/A/][^a/f/^A/] [b/f/B/][c'/f/c/][d'fd] | 
[V:2] B,,[FB,G,] G,,[FB,G,] | 
[V:1] [fdA][f/d/_A/][f/d/G/]- [f/d/G/][=f/d/^F/][fdG] | 
[V:2] B,,[FB,G,] G,,[=FB,G,] | 
[V:1] z/ [g/e/G/][a/e/A/][b/e/B/] [c'/e/c/][d'/f/d/][e'ge] | 
[V:2] C,[ECG,] G,,[ECG,] | 
[V:1] [ecA][e/c/_A/][e/c/G/]- [e/c/G/]c/e/g/ | 
[V:2] C,[ECG,] E,[ECG,] | 
[V:1] a/_a/g/_g/ f/d'd/ & [f2B2]f/bd/ | 
[V:2] D,[FB,G,] G,,[FB,G,] | 
[V:1] aB/f/- f/G/-d/^d/ & fB/d/- d/G/[BG] | 
[V:2] B,,[FB,G,] G,,[FB,G,] | 
[V:1] e/_e/d/_d/ c/g^g/ & [c2G2]c/-[=e3/c3/] | 
[V:2] C,[ECG,] C,[ECG,] | 
[V:1] [a4f4c4] | 
[V:2] F,/E,/F,/G,/ A,/B,/C | 
[V:1] c'/b/c'/a/- a/b/c' & f>^d-d2 | 
[V:2] [F,F,,][FCA,] [^F,^F,,][^DCA,] | 
[V:1] c'/b/c'/e/- e/c'/a/e/ & e>c-c2 | 
[V:2] [G,G,,][ECG,] [A,A,,][ECA,] | 
[V:1] c/d/e/d/- d/e/d & ^F>[B=F]- [BF][BF] |[1 
[V:2] [A,A,,][D,D,,] [G,G,,][G,,G,,,] | 
[V:1] [cGE]G/c/ e/c/e/g/ :|][2 
[V:2] [C,C,,] z z G,/E,/ :|]  
[V:1] [cGE]G/^F/ G/^G/A/B/ || 
[V:2] [C,C,,][ECG,][=F2C2G,2] ||  
[V:1] c/B/c/e/ a/^d/c/A/ & E2z2 | 
[V:2] G,2^F,/A,/C/^D/ & [CC,]E,/G,/x2 | 
[V:1] G/^F/=F/E/- E/E/[ED] | 
[V:2] E/^D/=D/C/- C[^G,E,] | 
[V:1] A/^G/A/c/ f/d/B/G/ & C2z2 | 
[V:2] E,2z2 & [A,A,,]C,/E,/ D,/F,/^G,/B,/ | 
[V:1] A/c/_B/A/- =A/=B/c & A/A/E/F/- F[FD] | 
[V:2] C/E/^C/D/- D[_A,_A,,] | 
[V:1] c/B^A/- A/A/B & [FD]>[E^C]- [EC][FD] | 
[V:2] [G,G,,][B,G,F,] [G,G,,][G,F,] | 
[V:1] B/AE/- [E/C/][F/D/][GE] & [E3/C3/]C/-x2 | 
[V:2] C,[G,E,] C,[G,E,] | 
[V:1] G/B/e/g/ g/^fe/- & x2[^d3/A3/][B/G/]- | 
[V:2] B,,[EB,G,] B,,[^DB,A,] | 
[V:1] [e2B2G2]-[eBG]!accent!!arpeggio![gBF] | 
[V:2] [E/E,/]C/B,/G,/ E,!accent![B,G,D,] | 
[V:1] c/B/c/e/ a/^d/c/A/ & E2z2 | 
[V:2] G,2z2 & [CC,]E,/G,/ ^F,/A,/C/^D/ | 
[V:1] G/^F/=F/E/- E/E/[ED] | 
[V:2] E/^D/=D/C/- C[^G,E,] | 
[V:1] A/^G/A/c/ f/d/B/G/ & C2z2 | 
[V:2] E,2z2 & [A,A,,]C,/E,/ D,/F,/^G,/B,/ | 
[V:1] A/c/_B/A/- A/f/g & A/A/E/F/- F[^c_B] | 
[V:2] C/E/^C/D/- D[E,E,,] | 
[V:1] g/fc/- c/d/^d & [dA]>A- A[cA] | 
[V:2] [F,F,,][FDA,] [F,F,,][^F,^F,,] | 
[V:1] [e/c/G/][gec][a/e/^c/]- a/e/a & x2[ec][ec] | 
[V:2] [G,G,,][_B,_B,,] [A,A,,][GE^CA,] | 
[V:1] a/^g/a/b/-x2 & [^f=c][=f/c/][=f/B/]- [bfB][e'/=g/e/][d'/f/d/] | 
[V:2] [D,D,,][^FD=CA,] [G,G,,][=FDB,G,] | 
[V:1] [c'ec]c/c/ c_B & x2E2 ]|:  
[V:2] [CC,] z[C2C,2] ]|:  
[V:1]  [K:F] [A/F/][B/G/][=B/^G/][c/A/]- [c/A/][d/_B/][f/d/][d/B/] | 
[V:2]  [K:F] F,[FCA,] F,[FDB,] & F,2F,2 | 
[V:1] [c/A/][=B/^G/][c/A/][A/F/]- [A/F/]A/c/_e/ | 
[V:2] F,[FCA,] F,[FCA,] & F,2F,2 | 
[V:1] d/gf/ _d/gf/ & B2B2 | 
[V:2] F,[FDB,] F,[F_DB,] & F,2F,2 | 
[V:1] [c/A/][=B/^G/][c/A/][A/F/]-[A2F2] | 
[V:2] F,[FCA,]x2 & F,2F,/E,/D,/C,/ | 
[V:1] G/^F/G/A/- A/G/A/G/ & [EB,][E/B,/][E/A,/]- [EA,][EA,] | 
[V:2] [C,C,,][C,C,,] [^C,^C,,][C,C,,] | 
[V:1] F/E/F/A/- A/^G/A & [DA,][D/A,/][F/D/]- [FD][^DC] | 
[V:2] [D,D,,][D,D,,] [F,F,,][^F,^F,,] | 
[V:1] E/G/c/e/ e/c/d & C>[cG] [c^F][B=F] | 
[V:2] [G,2G,,2][A,A,,][G,G,,] | 
[V:1] c2c!accent!c & z/ [E/C/][F/C/][G/E/C/]- [G/E/C/][F/C/][EC] | 
[V:2] z/ G,/A,/_B,/- B,/A,/G, & C,2-C,!accent!C, | 
[V:1] [A/F/][B/G/][=B/^G/][c/A/]- [c/A/][d/_B/][f/d/][d/B/] | 
[V:2] F,[FCA,] F,[FDB,] & F,2F,2 | 
[V:1] [c/A/][=B/^G/][c/A/][A/F/]-[A2F2] | 
[V:2] F,[FCA,] C,/=B,,/C,/^C,/ & F,2x2 | 
[V:1] F/GF/ EE & [D2A,2][DG,][D^G,] | 
[V:2] D,D, B,,B,, | 
[V:1] [A2E2^C2A,2]-[AECA,][AEC] | 
[V:2] A,,/^D,/E,/^C,/ A,,[G,G,,] | 
[V:1] A/^G/A/B/- B/A/B/A/ & [D=C]>[^FC]- [FC][FC] | 
[V:2] [^F,2F,,2][D,D,,][D,D,,] | 
[V:1] [A2D2B,2][GDB,][G^FD] | 
[V:2] G,,/A,,/B,,/C,/ B,,=B,, | 
[V:1] A/f/d/c/ [F=B,][GE_B,] & [F2C2]x2 |[1 
[V:2] C,2[D,D,,][C,C,,] | 
[V:1] [FCA,]c/c/ cB & x2E2 :|][2 
[V:2] [F,F,,] zC,2 :|]  
[V:1] [FCA,]c/f/ a/f/a/c'/ ]|: 
[V:2] [F,F,,] z z [^F,^F,,] ]|:  
[V:1] d'/^c'/d'/=c'/- c'/d'c'/ & [be]>[be]- [b/e/][b3/e3/] | 
[V:2] [G,G,,][ECB,] [C,C,,][ECB,] | 
[V:1] d'/^c'/d'/=c'/- c'/d'c'/ & [be]>[be]- [b/e/][b3/e3/] | 
[V:2] [G,G,,][B,B,,] [A,A,,][G,G,,] | 
[V:1] d'/^c'/d'/c'/- c'/d'c'/ & [af]>[af]- [a/f/][a3/f3/] | 
[V:2] [F,F,,][FCA,] [C,C,,][FCA,] | 
[V:1] d'/^c'/d'/=c'/- c'/=d'c'/ & [af]>[af]- [a/f/][a3/^d3/] | 
[V:2] [F,F,,][CC,] [A,A,,][^F,^F,,] | 
[V:1] e'/^d'/e'/=d'/- d'/e'd'/ & [be]>[be]- [b/e/][b3/e3/] | 
[V:2] [G,G,,][ECB,] [C,C,,][ECB,] | 
[V:1] e'/^d'/e'/=d'/- d'/e'c'/ & [be]>[be]- [b/e/][b3/e3/] | 
[V:2] [CC,][B,B,,] [G,G,,][^G,^G,,] | 
[V:1] f'/e'/f'/=c'/- c'/d'c'/ & [af]>[af]- [a/f/][a3/f3/] | 
[V:2] [A,A,,][FCA,] [F,F,,][FCA,] | 
[V:1] f'/e'/f'/c'/-x2 & [af]>[af]- [c'/a/f/][c'/a/f/][d'=bf] | 
[V:2] [DD,][CC,] [A,A,,][_A,_A,,] | 
[V:1] d'/^c'/d'/=c'/- c'/[d'b]^c'/ & [_be]>[be]- [b/e/]e3/ | 
[V:2] [G,G,,][ECB,] [C,C,,][ECB,] | 
[V:1] d'/^c'/d'/=c'/- c'/d'c'/ & [be]>[be]- [b/e/][b3/e3/] | 
[V:2] [G,G,,][B,B,,] [A,A,,][G,G,,] | 
[V:1] d'/^c'/d'/=c'/- c'/d'c'/ & [af]>[af]- [a/f/][a3/f3/] | 
[V:2] [F,F,,][FCA,] [C,C,,][FCA,] | 
[V:1] d'/^c'/d'/=c'/- c'/d'c'/ & [a_e]>[ae]- [a/e/][a3/e3/] | 
[V:2] [A,A,,][F,F,,] [G,G,,][A,A,,] | 
[V:1] c'/bf/- f/c'/b & [fd]>_d- d[fd] | 
[V:2] [B,B,,][FDB,] [B,B,,][F_DB,] | 
[V:1] b/af/- f/b/a & [fc]>c- cf | 
[V:2] [CC,][FCA,] [A,A,,][FCA,] | 
[V:1] a/gg/- g/a/g & [f=B]>[e_B]- [eB][eB] |[1 
[V:2] [G,G,,][FD=B,G,] [C,C,,][EC_B,] | 
[V:1] [fcA]c/f/ a/f/a/c'/ |[2 
[V:2] [F,F,,] z z [^F,^F,,] | 
[V:1] [f2c2A2][f'c'af] z |]  
[V:2] [F,F,,]{/=B,,}C,F,, z |]  


